X: 29372
T: Newmarket, The
R: polka
M: 2/4
K: Gmajor
|:de/d/ Bd/B/|AD G>B|AD GA|BA A2|
de/d/ Bd/B/|AD G>B|AD E/F/G/A/|BG G2:|
|:de/f/ ga/g/|fe e2|Bd ef|ed d2|
de/f/ ga/g/|fe e2|Bd ef|g2 g2:|

